themes/default/images/svg/arrow.svg

<?xml version="1.0" encoding="UTF-8" standalone="no"?>
<svg width="100px" height="100px" viewBox="0 0 22 16" version="1.1" xmlns="http://www.w3.org/2000/svg" xmlns:xlink="http://www.w3.org/1999/xlink">
    <title>Arrow</title>
    <desc>Open page</desc>
    <defs></defs>
    <path d="M17.781206,9.5388 L-0.000106938421,9.5388 L-0.000106938421,7.5388 L18.0423107,7.5388 L12.9948613,2.39971765 L14.4217387,0.99828235 L21.0317387,7.72828235 L21.728675,8.437871 L21.0228678,9.13863666 L14.0228678,16.0886367 L12.6137322,14.6693633 L17.781206,9.5388 Z M19.2723353,8.79115487 L19.2723353,8.05832167 L19.6137322,7.71936334 L19.6048613,9.12971765 L19.2723353,8.79115487 Z"></path>
</svg>

<svg width="100" height="100" viewBox="0 0 22 16" xmlns="http://www.w3.org/2000/svg"><title>Arrow</title><desc>Open page</desc><path d="M17.781 9.539H0v-2h18.042l-5.047-5.14L14.422 1l6.61 6.73.697.709-.706.7-7 6.95-1.41-1.419 5.168-5.13zm1.491-.748v-.733l.342-.339-.01 1.41-.332-.338z"/></svg>
